img/makeup toolbox.svg

<svg width="60" height="48" viewBox="0 0 60 48" fill="none" xmlns="http://www.w3.org/2000/svg">
<path d="M56.03 1H3.97C2.32971 1 1 2.32971 1 3.97V44.03C1 45.6703 2.32971 47 3.97 47H56.03C57.6703 47 59 45.6703 59 44.03V3.97C59 2.32971 57.6703 1 56.03 1Z" fill="#D8D8D8" stroke="#54596E" stroke-width="2" stroke-linecap="round" stroke-linejoin="round"/>
<path d="M17.4 5H6.6C5.71634 5 5 5.71634 5 6.6V30.4C5 31.2837 5.71634 32 6.6 32H17.4C18.2837 32 19 31.2837 19 30.4V6.6C19 5.71634 18.2837 5 17.4 5Z" fill="#FFD578" stroke="#54596E" stroke-width="2" stroke-linecap="round" stroke-linejoin="round"/>
<path d="M53.4 5H42.6C41.7163 5 41 5.71634 41 6.6V30.4C41 31.2837 41.7163 32 42.6 32H53.4C54.2837 32 55 31.2837 55 30.4V6.6C55 5.71634 54.2837 5 53.4 5Z" fill="#FF80C3" stroke="#54596E" stroke-width="2" stroke-linecap="round" stroke-linejoin="round"/>
<path d="M35.4 5H24.6C23.7163 5 23 5.71634 23 6.6V30.4C23 31.2837 23.7163 32 24.6 32H35.4C36.2837 32 37 31.2837 37 30.4V6.6C37 5.71634 36.2837 5 35.4 5Z" fill="#55A6FF" stroke="#54596E" stroke-width="2" stroke-linecap="round" stroke-linejoin="round"/>
<path opacity="0.15" d="M53.4 32H42.6C42.1757 32 41.7687 31.8314 41.4686 31.5314C41.1686 31.2313 41 30.8243 41 30.4L53.4 5C53.8243 5 54.2313 5.16857 54.5314 5.46863C54.8314 5.76869 55 6.17565 55 6.6V30.4C55 30.8243 54.8314 31.2313 54.5314 31.5314C54.2313 31.8314 53.8243 32 53.4 32V32Z" fill="#54596E"/>
<path opacity="0.15" d="M35.4 32H24.6C24.1757 32 23.7687 31.8314 23.4686 31.5314C23.1686 31.2313 23 30.8243 23 30.4L35.4 5C35.8243 5 36.2313 5.16857 36.5314 5.46863C36.8314 5.76869 37 6.17565 37 6.6V30.4C37 30.8243 36.8314 31.2313 36.5314 31.5314C36.2313 31.8314 35.8243 32 35.4 32V32Z" fill="#54596E"/>
<path opacity="0.15" d="M17.4 32H6.6C6.17565 32 5.76869 31.8314 5.46863 31.5314C5.16857 31.2313 5 30.8243 5 30.4L17.4 5C17.8243 5 18.2313 5.16857 18.5314 5.46863C18.8314 5.76869 19 6.17565 19 6.6V30.4C19 30.8243 18.8314 31.2313 18.5314 31.5314C18.2313 31.8314 17.8243 32 17.4 32V32Z" fill="#54596E"/>
<path d="M55 36H5V43H55V36Z" fill="#D8D8D8" stroke="#54596E" stroke-width="2" stroke-linecap="round" stroke-linejoin="round"/>
<path d="M46 39H14" stroke="#54596E" stroke-width="2" stroke-linecap="round" stroke-linejoin="round"/>
<path d="M50 39H45V40H50V39Z" stroke="#54596E" stroke-width="2" stroke-linecap="round" stroke-linejoin="round"/>
<path d="M14 39H9V40H14V39Z" stroke="#54596E" stroke-width="2" stroke-linecap="round" stroke-linejoin="round"/>
<path d="M27 17C27.5523 17 28 16.5523 28 16C28 15.4477 27.5523 15 27 15C26.4477 15 26 15.4477 26 16C26 16.5523 26.4477 17 27 17Z" fill="#54596E"/>
<path d="M33 17C33.5523 17 34 16.5523 34 16C34 15.4477 33.5523 15 33 15C32.4477 15 32 15.4477 32 16C32 16.5523 32.4477 17 33 17Z" fill="#54596E"/>
<path d="M27 19.6401C27.3754 20.0658 27.837 20.4066 28.3542 20.6401C28.8715 20.8736 29.4325 20.9944 30 20.9944C30.5675 20.9944 31.1285 20.8736 31.6458 20.6401C32.163 20.4066 32.6246 20.0658 33 19.6401" stroke="#54596E" stroke-width="2" stroke-linecap="round" stroke-linejoin="round"/>
</svg>

<svg width="60" height="48" fill="none" xmlns="http://www.w3.org/2000/svg"><path d="M56.03 1H3.97A2.97 2.97 0 0 0 1 3.97v40.06A2.97 2.97 0 0 0 3.97 47h52.06A2.97 2.97 0 0 0 59 44.03V3.97A2.97 2.97 0 0 0 56.03 1z" fill="#D8D8D8" stroke="#54596E" stroke-width="2" stroke-linecap="round" stroke-linejoin="round"/><path d="M17.4 5H6.6A1.6 1.6 0 0 0 5 6.6v23.8A1.6 1.6 0 0 0 6.6 32h10.8a1.6 1.6 0 0 0 1.6-1.6V6.6A1.6 1.6 0 0 0 17.4 5z" fill="#FFD578" stroke="#54596E" stroke-width="2" stroke-linecap="round" stroke-linejoin="round"/><path d="M53.4 5H42.6A1.6 1.6 0 0 0 41 6.6v23.8a1.6 1.6 0 0 0 1.6 1.6h10.8a1.6 1.6 0 0 0 1.6-1.6V6.6A1.6 1.6 0 0 0 53.4 5z" fill="#FF80C3" stroke="#54596E" stroke-width="2" stroke-linecap="round" stroke-linejoin="round"/><path d="M35.4 5H24.6A1.6 1.6 0 0 0 23 6.6v23.8a1.6 1.6 0 0 0 1.6 1.6h10.8a1.6 1.6 0 0 0 1.6-1.6V6.6A1.6 1.6 0 0 0 35.4 5z" fill="#55A6FF" stroke="#54596E" stroke-width="2" stroke-linecap="round" stroke-linejoin="round"/><path opacity=".15" d="M53.4 32H42.6a1.6 1.6 0 0 1-1.6-1.6L53.4 5A1.6 1.6 0 0 1 55 6.6v23.8a1.6 1.6 0 0 1-1.6 1.6zM35.4 32H24.6a1.6 1.6 0 0 1-1.6-1.6L35.4 5A1.6 1.6 0 0 1 37 6.6v23.8a1.6 1.6 0 0 1-1.6 1.6zM17.4 32H6.6A1.6 1.6 0 0 1 5 30.4L17.4 5A1.6 1.6 0 0 1 19 6.6v23.8a1.6 1.6 0 0 1-1.6 1.6z" fill="#54596E"/><path d="M55 36H5v7h50v-7z" fill="#D8D8D8" stroke="#54596E" stroke-width="2" stroke-linecap="round" stroke-linejoin="round"/><path d="M46 39H14M50 39h-5v1h5v-1zM14 39H9v1h5v-1z" stroke="#54596E" stroke-width="2" stroke-linecap="round" stroke-linejoin="round"/><path d="M27 17a1 1 0 1 0 0-2 1 1 0 0 0 0 2zM33 17a1 1 0 1 0 0-2 1 1 0 0 0 0 2z" fill="#54596E"/><path d="M27 19.64a4 4 0 0 0 6 0" stroke="#54596E" stroke-width="2" stroke-linecap="round" stroke-linejoin="round"/></svg>
